X:1
T:Title
%%score { ( 1 3 ) | ( 2 4 ) }
L:1/8
Q:1/4=100
M:4/4
K:C
V:1 treble nm="Grand Piano"
V:3 treble 
V:2 bass 
V:4 bass 
V:1
 [CEG]2 [CEG]4 [DFG]>[DFG] | [EG]6 [EG][EG] | AAAA G2 [DF]2 |[M:3/4] [CE]>[DF] [EG]2 z2 | %4
w: Adam~Geibel * * *||||
[M:1/4] [EG]2 |[M:4/4] G4 ^G3 G | A2 _B2 A2 ^GG | z2 c4 z2 | [Fc]2 [Ec]2 z4 |] %9
w: |||||
V:2
 C,2 C,4 B,,>B,, | [C,C]6 [C,C][C,C] | [F,CF][F,CF][F,CF][F,CF] [G,B,E]2 [G,,G,]2 | %3
[M:3/4] [C,G,]2 [C,C]2 z2 |[M:1/4] [C,C]2 |[M:4/4] [CE]4 [B,DE]3 [B,DE] | %6
 [A,CE]2 [G,CE]2 [F,CF]2 [^F,C_E][F,CE] | [CE]4 z4 | [C,A,]2 [C,G,]2 z4 |] %9
V:3
 x8 | x8 | x8 |[M:3/4] x6 |[M:1/4] x2 |[M:4/4] x8 | x8 | G2 z2 ^F2 d2 | x8 |] %9
V:4
 x8 | x8 | x8 |[M:3/4] x6 |[M:1/4] x2 |[M:4/4] x8 | x8 | G,2 A,2 [D,A,]2 [G,B,F]2 | x8 |] %9

